src/actions/symbolic/media-playlist-repeat-one-symbolic.svg

<svg version="1.1" viewBox="0 0 16 16" xmlns="http://www.w3.org/2000/svg">
 <defs>
  <style id="current-color-scheme" type="text/css">
   .ColorScheme-Text { color:#2e3440; } .ColorScheme-Highlight { color:#88c0d0; } .ColorScheme-NeutralText { color:#d08770; } .ColorScheme-PositiveText { color:#a3be8c; } .ColorScheme-NegativeText { color:#bf616a; }
  </style>
 </defs>
 <path d="m4 2c-1.108 0-2 0.892-2 2v3.0391c0.064835-0.010837 0.1234-0.039062 0.19141-0.039062h0.80859v-3c0-0.554 0.446-1 1-1h9l-2.5352 2.5352 0.70703 0.70703 3.5352-3.5352-0.70703-0.70703zm10 6.9609c-0.064835 0.010837-0.1234 0.039062-0.19141 0.039062h-0.80859v3c0 0.554-0.446 1-1 1h-9l2.5352-2.5352-0.70703-0.70703-3.5352 3.5352 0.70703 0.70703h10c1.108 0 2-0.892 2-2z" fill="currentColor"/>
 <path d="m7 5v1h1v4h-1v1h3v-1h-1v-5h-2z" fill="currentColor"/>
</svg>

<svg xmlns="http://www.w3.org/2000/svg" viewBox="0 0 16 16"><path fill="currentColor" d="M4 2c-1.108 0-2 .892-2 2v3.04c.065-.012.123-.04.191-.04H3V4c0-.554.446-1 1-1h9l-2.535 2.535.707.707 3.535-3.535L14 2zm10 6.96c-.065.012-.123.04-.191.04H13v3c0 .554-.446 1-1 1H3l2.535-2.535-.707-.707-3.535 3.535L2 14h10c1.108 0 2-.892 2-2z"/><path fill="currentColor" d="M7 5v1h1v4H7v1h3v-1H9V5z"/></svg>
